public/me-head.svg

<svg height="76" viewBox="0 0 63 76" width="63" xmlns="http://www.w3.org/2000/svg"><g fill="none" fill-rule="evenodd"><path d="m7 6.5 45.902-.08c2.698 0 4.906 2.213 4.906 4.918v49.852c0 2.705-2.072 5.682-4.606 6.614l-19.847 7.309c-1.259.464-2.915.695-4.573.695-1.678 0-3.359-.237-4.632-.711l-19.55-7.277c-2.53-.94-4.6-3.925-4.6-6.63v-46.69c0-2.705 4.302-8 7-8zm45.902 4.084h-47.996c-.4 0-.752.353-.752.754v49.852c0 .964.99 2.39 1.891 2.726l19.551 7.277c.758.282 1.95.45 3.186.45 1.22 0 2.393-.164 3.141-.439l19.847-7.309c.898-.33 1.884-1.746 1.884-2.705v-49.852a.773.773 0 0 0 -.752-.754z" fill="#f7cfaf"/><path d="m0 30.886 11.942-12.666s-5.926 8.907 4.673 10.585c13.154 2.082 27.693-7.115 30.808-16.484l10.385 17.738v-16.726l4.957-5.008-6.288-.935-2.823-7.043-4.339 6.073h-42.575c-3.75 0-6.74 1.678-6.74 6.648z" fill="#4c3515"/><path d="m30.156 61.194h-5.344a2.08 2.08 0 0 1 -2.077-2.082c0-1.15.93-2.083 2.077-2.083h4.896v-8.328c0-1.15.93-2.083 2.077-2.083a2.08 2.08 0 0 1 2.077 2.083v8.755c0 1.56-1.41 3.738-3.706 3.738" fill="#f7cfaf"/><path d="m18.485 48.338a3.9 3.9 0 0 1 -3.894 3.904 3.9 3.9 0 0 1 -3.895-3.904 3.9 3.9 0 0 1 3.895-3.904 3.9 3.9 0 0 1 3.894 3.904m29.222-0a3.9 3.9 0 0 1 -3.894 3.904 3.9 3.9 0 0 1 -3.894-3.904 3.9 3.9 0 0 1 3.894-3.904 3.9 3.9 0 0 1 3.894 3.904" fill="#648d6b"/></g></svg>

<svg width="63" height="76" viewBox="0 0 63 76" xmlns="http://www.w3.org/2000/svg"><title>me-head</title><g fill="none" fill-rule="evenodd"><path d="M7 6.5l45.902-.08c2.698 0 4.906 2.213 4.906 4.918V61.19c0 2.705-2.072 5.682-4.606 6.614l-19.847 7.309c-1.259.464-2.915.695-4.573.695-1.678 0-3.359-.237-4.632-.711L4.6 67.82C2.07 66.88 0 63.895 0 61.19V14.5c0-2.705 4.302-8 7-8zm45.902 4.084H4.906c-.4 0-.752.353-.752.754V61.19c0 .964.99 2.39 1.891 2.726l19.551 7.277c.758.282 1.95.45 3.186.45 1.22 0 2.393-.164 3.141-.439l19.847-7.309c.898-.33 1.884-1.746 1.884-2.705V11.338a.773.773 0 0 0-.752-.754z" fill="#F7CFAF"/><path d="M0 30.886L11.942 18.22s-5.926 8.907 4.673 10.585c13.154 2.082 27.693-7.115 30.808-16.484l10.385 17.738V13.333l4.957-5.008-6.288-.935L53.654.347 49.315 6.42H6.74C2.99 6.42 0 8.098 0 13.068v17.818z" fill="#4C3515"/><path d="M30.156 61.194h-5.344a2.08 2.08 0 0 1-2.077-2.082c0-1.15.93-2.083 2.077-2.083h4.896v-8.328c0-1.15.93-2.083 2.077-2.083a2.08 2.08 0 0 1 2.077 2.083v8.755c0 1.56-1.41 3.738-3.706 3.738" fill="#F7CFAF"/><path d="M18.485 48.338a3.9 3.9 0 0 1-3.894 3.904 3.9 3.9 0 0 1-3.895-3.904 3.9 3.9 0 0 1 3.895-3.904 3.9 3.9 0 0 1 3.894 3.904M47.707 48.338a3.9 3.9 0 0 1-3.894 3.904 3.9 3.9 0 0 1-3.894-3.904 3.9 3.9 0 0 1 3.894-3.904 3.9 3.9 0 0 1 3.894 3.904" fill="#648D6B"/></g></svg>
